symbols/web/filter_9_plus/materialsymbolssharp/filter_9_plus_wght100gradN25fill1_20px.svg

<svg xmlns="http://www.w3.org/2000/svg" height="20" width="20"><path d="M8.021 11.042h2.708v-5.5H7.667v3.062h2.437v1.834H8.021Zm2.083-3.063H8.271V6.167h1.833ZM5.708 13.75V2.854h10.896V13.75Zm-2.312 2.312V5.833h.625v9.605h9.604v.624ZM13.167 10h.625V8.604h1.396v-.625h-1.396V6.583h-.625v1.396h-1.396v.625h1.396Z"/></svg>

<svg xmlns="http://www.w3.org/2000/svg" height="20" width="20"><path d="M8.021 11.042H10.729V5.542H7.667V8.604H10.104V10.438H8.021ZM10.104 7.979H8.271V6.167H10.104ZM5.708 13.75V2.854H16.604V13.75ZM3.396 16.062V5.833H4.021V15.438H13.625V16.062ZM13.167 10H13.792V8.604H15.188V7.979H13.792V6.583H13.167V7.979H11.771V8.604H13.167Z"/></svg>
